Costumes/f-block.svg

<?xml version="1.0" encoding="UTF-8" standalone="no"?>
<svg
   version="1.1"
   width="46"
   height="80"
   id="svg5"
   sodipodi:docname="f-block.svg"
   xmlns:inkscape="http://www.inkscape.org/namespaces/inkscape"
   xmlns:sodipodi="http://sodipodi.sourceforge.net/DTD/sodipodi-0.dtd"
   xmlns="http://www.w3.org/2000/svg"
   xmlns:svg="http://www.w3.org/2000/svg">
  <defs
     id="defs9" />
  <sodipodi:namedview
     id="namedview7"
     pagecolor="#ffffff"
     bordercolor="#000000"
     borderopacity="0.25"
     inkscape:showpageshadow="2"
     inkscape:pageopacity="0.0"
     inkscape:pagecheckerboard="0"
     inkscape:deskcolor="#d1d1d1" />
  <!-- Exported by Scratch - http://scratch.mit.edu/ -->
  <g
     id="ID0.9530039201490581">
    <path
       id="ID0.5364048141054809"
       fill="#ff9400"
       d="m 326,361 c 0.723,3.056 -1.022,3.644 -1,6 -10.057,3.356 -20.072,-1.302 -27,2 -0.136,8.016 0.851,10.949 0,18 10.088,-1.101 13.51,-3.322 25,-2 0.319,2.348 1.58,3.753 1,7 -6.799,1.429 -17.091,3.473 -23,0 -1.249,10.666 0.068,21.079 0,34 -2.667,0 -5.333,0 -8,0 1.798,-22.675 -4.994,-45.458 -1,-64 10.796,-1.965 22.765,-1.692 34,-1 z"
       transform="translate(-283,-356)" />
    <path
       id="ID0.6162103633396327"
       d="m 326,356 c 1,0 2,0 3,0 0,2.667 0,5.333 0,8 -2.236,0.431 -0.405,4.928 -1,7 -6.44,-2.107 -3.564,5.103 -7,6 -7.564,-2.398 -13.296,0.192 -20,0 0,2 0,4 0,6 7.033,-1.28 17.208,-1.934 27,-1 -0.888,8.189 -2.965,12.406 -6,20 -5.977,-2.25 -10.999,0.48 -18,0 -1.519,12.844 3.051,24.079 -3,34 -5.333,0 -10.667,0 -16,0 -0.359,-12.308 1.171,-26.504 -2,-36 0,-12 0,-24 0,-36 7.979,1.938 4.456,-4.398 6,-7 7.875,1.329 27.553,2.179 37,-1 z m -34,6 c -3.994,18.542 2.798,41.325 1,64 2.667,0 5.333,0 8,0 0.068,-12.921 -1.249,-23.334 0,-34 5.909,3.473 16.201,1.429 23,0 0.58,-3.247 -0.681,-4.652 -1,-7 -11.49,-1.322 -14.912,0.899 -25,2 0.851,-7.051 -0.136,-9.984 0,-18 6.928,-3.302 16.943,1.356 27,-2 -0.022,-2.356 1.723,-2.944 1,-6 -11.235,-0.692 -23.204,-0.965 -34,1 z"
       transform="translate(-283,-356)" />
  </g>
</svg>

<svg version="1.1" width="46" height="80" xmlns="http://www.w3.org/2000/svg" xmlns:xlink="http://www.w3.org/1999/xlink">
  <!-- Exported by Scratch - http://scratch.mit.edu/ -->
  <g id="ID0.9530039201490581">
    <path id="ID0.5364048141054809" fill="#FF9400" d="M 326 361 C 326.723 364.056 324.978 364.644 325 367 C 314.943 370.356 304.928 365.698 298 369 C 297.864 377.016 298.851 379.949 298 387 C 308.088 385.899 311.510 383.678 323 385 C 323.319 387.348 324.580 388.753 324 392 C 317.201 393.429 306.909 395.473 301 392 C 299.751 402.666 301.068 413.079 301 426 C 298.333 426 295.667 426 293 426 C 294.798 403.325 288.006 380.542 292 362 C 302.796 360.035 314.765 360.308 326 361 Z " transform="matrix(1, 0, 0, 1, -283, -356)"/>
    <path id="ID0.6162103633396327" d="M 326 356 C 327 356 328 356 329 356 C 329 358.667 329 361.333 329 364 C 326.764 364.431 328.595 368.928 328 371 C 321.560 368.893 324.436 376.103 321 377 C 313.436 374.602 307.704 377.192 301 377 C 301 379 301 381 301 383 C 308.033 381.720 318.208 381.066 328 382 C 327.112 390.189 325.035 394.406 322 402 C 316.023 399.750 311.001 402.480 304 402 C 302.481 414.844 307.051 426.079 301 436 C 295.667 436 290.333 436 285 436 C 284.641 423.692 286.171 409.496 283 400 C 283 388 283 376 283 364 C 290.979 365.938 287.456 359.602 289 357 C 296.875 358.329 316.553 359.179 326 356 Z M 292 362 C 288.006 380.542 294.798 403.325 293 426 C 295.667 426 298.333 426 301 426 C 301.068 413.079 299.751 402.666 301 392 C 306.909 395.473 317.201 393.429 324 392 C 324.580 388.753 323.319 387.348 323 385 C 311.510 383.678 308.088 385.899 298 387 C 298.851 379.949 297.864 377.016 298 369 C 304.928 365.698 314.943 370.356 325 367 C 324.978 364.644 326.723 364.056 326 361 C 314.765 360.308 302.796 360.035 292 362 Z " transform="matrix(1, 0, 0, 1, -283, -356)"/>
  </g>
</svg>
